X:1
T:Violet Tulloch, Queen of Lerwick
C:Aly Bain
M:4/4
L:1/8
P:AABB
K:D
P:A
|:A3 B A F3|G3 A c e3|d3 F B2 d2|A3 G G F3|
E3 F G2 A2|A3 c e2 g2|f3 A f3 e|"Fine"d8:|
P:B
|:a3 b a2 g2|f3 A f e3|d3 e c3 A|B3 A A4|
a3 b a3 e|g3 f c2 d2|B g3 c a3|d6 fg|
a3 b a2 g2|f3 A f3 e| d3 B g3 f|f4 e3 f|
A3 B A F3| G3 A c g3|f3 A f3 e|"Da Capo al Fine" d8:|


